X:141
T:Blechynden's Maggot. JJo8.141
%%VWML:JohnsonVol8-2184-p71-0
F:http://www.vwml.org/record/JohnsonVol8/2184/p71
Z:Transcribed by Simon Furey and Lewis Jones
Z:vmp.Simon Wilson 2013 www.village-music-project.org.uk
Z:Dance added by John Chambers 2017
M:6/8
L:1/8
%Q:3/8=110
K:F
|:\
faf faf | gcc ccc | BdB BdB | AFF FFF |\
faf faf | gee fdd | ecc d=BB | cCC CCC :|
|:\
gbg gbg | aff fff | bag fed | ^cde ed^c |\
bgg aff | bgg aff | (f/g/a)f cfe | f3F3 :|
W: The 1st and 2d Cu. foot it 4 times and
W:Right and Left half round .| the same back
W:again ..| 4 hands quite round .| the same
W:back again ..| 1st Man set to the 2d Wo. and
W:turn .| 1st Wo. do the same to the 2d
W:Man ..| Cross over and half figure .|
W:Right and Left ..|
W:
T:Ge Ho Dobin. JJo8.142
B:J.Johnson Choice Collection Vol 8 1758
Z:vmp.Simon Wilson 2013 www.village-music-project.org.uk
Z:Dance added by John Chambers 2017
M:6/8
L:1/8
%Q:3/8=100
K:D
|: D |\
F>GA B>cA | B>dB A>Bc |\
d>ef B>cd | e>cAd2 :|\
|: c/d/ |\
e>fe e>cA | e>cA A>FG |
A>BA A>GF | G>EF G>FG |\
F2A FDF | G2B GEG |\
F>FA G>FE | D2dD2 :|
W: First Man foot it to the 2d Wo. not turn .|
W:1st Wo. do the same to 2d Man ..| Hands 4
W:across quite round .| the same back again ..|
W:1st Cu lead up and the 2d Cu. lead down at
W:the same time .| then turn and meet and
W:foot it ..| Gallop down and up and cast
W:off .| Right hand and Left ..|
W:
